16x16/panel/btsync-gui-paused.svg

<svg xmlns="http://www.w3.org/2000/svg" width="16" height="16" version="1.1">
 <defs>
  <style id="current-color-scheme" type="text/css">
   .ColorScheme-Text { color:#323a41; } .ColorScheme-Highlight { color:#4285f4; } .ColorScheme-NeutralText { color:#ff9800; } .ColorScheme-PositiveText { color:#4caf50; } .ColorScheme-NegativeText { color:#f44336; }
  </style>
 </defs>
 <path style="fill:currentColor" class="ColorScheme-Text" d="M 7.8125 1.0019531 C 6.6841169 1.0312357 5.5461993 1.3334766 4.5 1.9375 C 1.1521623 3.870375 0.00462497 8.1521623 1.9375 11.5 C 3.870375 14.847838 8.1521623 15.995375 11.5 14.0625 C 14.847838 12.129625 15.995375 7.8478377 14.0625 4.5 C 12.733648 2.1983616 10.294943 0.93753153 7.8125 1.0019531 z M 5 3 L 7 3 A 1.0001 1.0001 0 0 1 7.3261719 3.0566406 C 7.7769541 2.9954436 8.2296104 2.9958975 8.6738281 3.0566406 A 1.0001 1.0001 0 0 1 9 3 L 11 3 A 1.0001 1.0001 0 0 1 12 4 L 12 4.5351562 L 12.695312 4.1347656 L 12.464844 7.7324219 L 12 7.5019531 L 12 9 L 12.892578 9 C 12.744441 9.728725 12.434316 10.404885 12 10.988281 L 12 12 A 1.0001 1.0001 0 0 1 11 13 L 9 13 A 1.0001 1.0001 0 0 1 8.6738281 12.943359 C 8.223046 13.004556 7.7703896 13.004103 7.3261719 12.943359 A 1.0001 1.0001 0 0 1 7 13 L 5 13 A 1.0001 1.0001 0 0 1 4 12 L 4 11.464844 L 3.3046875 11.865234 L 3.5351562 8.2675781 L 4 8.4980469 L 4 7 L 3.1074219 7 C 3.2555595 6.2712749 3.5656858 5.5951176 4 5.0117188 L 4 4 A 1.0001 1.0001 0 0 1 5 3 z M 5 4 L 5 12 L 7 12 L 7 4 L 5 4 z M 9 4 L 9 12 L 11 12 L 11 4 L 9 4 z"/>
</svg>

<svg xmlns="http://www.w3.org/2000/svg" width="16" height="16"><defs><style id="current-color-scheme" type="text/css"></style></defs><path d="M7.813 1.002a7 7 0 1 0 0 0zM5 3h2a1 1 0 0 1 .326.057c.451-.062.904-.061 1.348 0A1 1 0 0 1 9 3h2a1 1 0 0 1 1 1v.535l.695-.4-.23 3.597-.465-.23V9h.893A4.999 4.999 0 0 1 12 10.988V12a1 1 0 0 1-1 1H9a1 1 0 0 1-.326-.057c-.451.062-.904.061-1.348 0A1 1 0 0 1 7 13H5a1 1 0 0 1-1-1v-.535l-.695.4.23-3.597.465.23V7h-.893A4.999 4.999 0 0 1 4 5.012V4a1 1 0 0 1 1-1zm0 1v8h2V4H5zm4 0v8h2V4H9z" fill="currentColor" color="#d3dae3"/></svg>
